packages/assets/static/images/icons/bold/restore--bold.svg

<svg width="24" height="24" viewBox="0 0 24 24" xmlns="http://www.w3.org/2000/svg">
<path d="M8.75 10.125H4.25C3.95163 10.125 3.66548 10.0065 3.4545 9.79553C3.24353 9.58455 3.125 9.29841 3.125 9.00004V4.50004C3.125 4.20167 3.24353 3.91552 3.4545 3.70454C3.66548 3.49356 3.95163 3.37504 4.25 3.37504C4.54837 3.37504 4.83452 3.49356 5.0455 3.70454C5.25647 3.91552 5.375 4.20167 5.375 4.50004V6.28129L6.10625 5.55004C7.84974 3.79956 10.2169 2.8129 12.6875 2.80691H12.74C15.1894 2.80097 17.5426 3.75984 19.2903 5.47597C19.3959 5.57927 19.4802 5.70235 19.5383 5.83821C19.5963 5.97406 19.6271 6.12002 19.6287 6.26775C19.6304 6.41549 19.6029 6.5621 19.5479 6.69922C19.4929 6.83634 19.4114 6.96128 19.3081 7.06691C19.2048 7.17254 19.0817 7.2568 18.9459 7.31486C18.81 7.37292 18.6641 7.40366 18.5163 7.40531C18.3686 7.40697 18.222 7.37951 18.0849 7.3245C17.9478 7.26949 17.8228 7.18802 17.7172 7.08472C16.3757 5.77463 14.572 5.04612 12.6969 5.05717C10.8219 5.06823 9.02683 5.81796 7.70094 7.14379L6.96875 7.87504H8.75C9.04837 7.87504 9.33452 7.99356 9.5455 8.20454C9.75647 8.41552 9.875 8.70167 9.875 9.00004C9.875 9.29841 9.75647 9.58455 9.5455 9.79553C9.33452 10.0065 9.04837 10.125 8.75 10.125ZM20.75 13.875H16.25C15.9516 13.875 15.6655 13.9936 15.4545 14.2045C15.2435 14.4155 15.125 14.7017 15.125 15C15.125 15.2984 15.2435 15.5846 15.4545 15.7955C15.6655 16.0065 15.9516 16.125 16.25 16.125H18.0312L17.3 16.8563C15.9761 18.1868 14.1782 18.9373 12.3012 18.9432H12.2609C10.3998 18.948 8.61163 18.2194 7.28375 16.9153C7.07042 16.7067 6.78295 16.5914 6.48459 16.5948C6.18623 16.5981 5.90142 16.7198 5.69281 16.9332C5.4842 17.1465 5.36888 17.434 5.37222 17.7323C5.37557 18.0307 5.49729 18.3155 5.71063 18.5241C7.45833 20.2402 9.81154 21.1991 12.2609 21.1932H12.3125C14.7822 21.1854 17.1479 20.1978 18.89 18.4472L19.625 17.7188V19.5C19.625 19.7984 19.7435 20.0846 19.9545 20.2955C20.1655 20.5065 20.4516 20.625 20.75 20.625C21.0484 20.625 21.3345 20.5065 21.5455 20.2955C21.7565 20.0846 21.875 19.7984 21.875 19.5V15C21.875 14.7017 21.7565 14.4155 21.5455 14.2045C21.3345 13.9936 21.0484 13.875 20.75 13.875Z"/>
</svg>

<svg viewBox="0 0 24 24" xmlns="http://www.w3.org/2000/svg" aria-hidden="true" fill="currentColor"><path d="M8.75 10.125h-4.5A1.125 1.125 0 0 1 3.125 9V4.5a1.125 1.125 0 0 1 2.25 0v1.781l.731-.731a9.32 9.32 0 0 1 6.582-2.743h.052a9.32 9.32 0 0 1 6.55 2.669 1.126 1.126 0 0 1-1.205 1.848 1.1 1.1 0 0 1-.368-.24 7.125 7.125 0 0 0-10.016.06l-.732.731H8.75a1.125 1.125 0 1 1 0 2.25m12 3.75h-4.5a1.125 1.125 0 0 0 0 2.25h1.781l-.731.731a7.08 7.08 0 0 1-4.999 2.087h-.04a7.08 7.08 0 0 1-4.977-2.028 1.125 1.125 0 1 0-1.573 1.61 9.32 9.32 0 0 0 6.55 2.668h.052a9.32 9.32 0 0 0 6.577-2.746l.735-.728V19.5a1.125 1.125 0 1 0 2.25 0V15a1.125 1.125 0 0 0-1.125-1.125"/></svg>
